svgs/sharp-regular/plate-utensils.svg

<svg xmlns="http://www.w3.org/2000/svg" viewBox="0 0 640 512"><!--! Font Awesome Pro 6.6.0 by @fontawesome - https://fontawesome.com License - https://fontawesome.com/license (Commercial License) Copyright 2024 Fonticons, Inc. --><path d="M48 16l0 24 0 128c0 4.4 3.6 8 8 8l8 0L64 40l0-24 48 0 0 24 0 136 8 0c4.4 0 8-3.6 8-8l0-128 0-24 48 0 0 24 0 128c0 30.9-25.1 56-56 56l-8 0 0 248 0 24-48 0 0-24 0-248-8 0c-30.9 0-56-25.1-56-56L0 40 0 16l48 0zm592 0l0 48.8L640 192l0 24 0 56 0 48 0 152 0 24-48 0 0-24 0-152-32 0-48 0 0-48 0-112c0-74.8 43.7-111.3 80-128.8C617.9 18.8 640 16 640 16zM592 192l0-104.7c-17.2 13.6-32 35.1-32 72.7l0 112 32 0 0-56 0-24zM336 32c60.2 0 114.9 23.8 155.2 62.4c-6.5 17.4-10.6 37.4-11.1 60.4C448.2 109.6 395.6 80 336 80c-50.4 0-95.9 21.2-128 55.2l0-63.1C244.3 46.8 288.4 32 336 32zm0 400c61.8 0 116.1-31.8 147.5-80l28.5 0 26.4 0c-36 75.7-113.1 128-202.4 128c-81.5 0-152.8-43.5-192-108.6l0-118.8c5.7-1.6 11.1-3.8 16.3-6.4c-.2 3.2-.3 6.5-.3 9.7c0 97.2 78.8 176 176 176zm80-176a80 80 0 1 0 -160 0 80 80 0 1 0 160 0zm-208 0a128 128 0 1 1 256 0 128 128 0 1 1 -256 0z"/></svg>

<svg xmlns="http://www.w3.org/2000/svg" viewBox="0 0 640 512"><!--! Font Awesome Pro 6.4.2 by @fontawesome - https://fontawesome.com License - https://fontawesome.com/license (Commercial License) Copyright 2023 Fonticons, Inc. --><path d="M48 16V40 168c0 4.4 3.6 8 8 8h8V40 16h48V40 176h8c4.4 0 8-3.6 8-8V40 16h48V40 168c0 30.9-25.1 56-56 56h-8V472v24H64V472 224H56c-30.9 0-56-25.1-56-56V40 16H48zm592 0V64.8 192v24 56 48V472v24H592V472 320H560 512V272 160c0-74.8 43.7-111.3 80-128.8C617.9 18.8 640 16 640 16zM592 192V87.3c-17.2 13.6-32 35.1-32 72.7V272h32V216 192zM336 32c60.2 0 114.9 23.8 155.2 62.4c-6.5 17.4-10.6 37.4-11.1 60.4C448.2 109.6 395.6 80 336 80c-50.4 0-95.9 21.2-128 55.2V72.2C244.3 46.8 288.4 32 336 32zm0 400c61.8 0 116.1-31.8 147.5-80H512h26.4c-36 75.7-113.1 128-202.4 128c-81.5 0-152.8-43.5-192-108.6V252.7c5.7-1.6 11.1-3.8 16.3-6.4c-.2 3.2-.3 6.5-.3 9.7c0 97.2 78.8 176 176 176zm80-176a80 80 0 1 0 -160 0 80 80 0 1 0 160 0zm-208 0a128 128 0 1 1 256 0 128 128 0 1 1 -256 0z"/></svg>
